build/logo/HelmOutline.svg

<svg xmlns="http://www.w3.org/2000/svg" fill="none" viewBox="0 0 24 24" focusable="false"><path d="M0 0H24V24H0z"/><path fill="#74767B" fill-rule="evenodd" d="M11.3486 3.2511L11.3486 4.90759C9.87012 5.04175 8.52246 5.62762 7.44434 6.52606L6.27246 5.354C6.01465 5.09662 5.61035 5.09662 5.35352 5.354C5.22461 5.48267 5.16016 5.64813 5.16016 5.8136C5.16016 5.97906 5.22461 6.14453 5.35352 6.27319L6.52539 7.44531C5.62695 8.52374 5.04199 9.87177 4.9082 11.3501L3.25 11.3501C2.88574 11.3501 2.59961 11.6361 2.59961 12.0001C2.59961 12.3641 2.88574 12.6501 3.25 12.6501L4.9082 12.6501C5.04199 14.1288 5.62695 15.4771 6.52539 16.5557L5.35449 17.7271C5.22559 17.8558 5.16113 18.0212 5.16113 18.1867C5.16113 18.3522 5.22559 18.5176 5.35449 18.6464C5.61133 18.9037 6.01562 18.9037 6.27344 18.6464L7.44531 17.4748C8.52344 18.3729 9.87109 18.9586 11.3486 19.0927L11.3486 20.7493C11.3486 21.1132 11.6348 21.3992 11.999 21.3992C12.3623 21.3992 12.6484 21.1132 12.6484 20.7493L12.6484 19.093C14.1279 18.9597 15.4766 18.374 16.5547 17.4755L17.7256 18.6459C17.9834 18.9033 18.3877 18.9033 18.6455 18.6459C18.7734 18.5172 18.8379 18.3517 18.8379 18.1862C18.8379 18.0208 18.7734 17.8553 18.6455 17.7266L17.4746 16.5561C18.373 15.4774 18.959 14.129 19.0928 12.6501L20.748 12.6501C21.1113 12.6501 21.3975 12.3641 21.3975 12.0001C21.3975 11.6361 21.1113 11.3501 20.748 11.3501L19.0928 11.3501C18.959 9.87134 18.374 8.52301 17.4746 7.4444L18.6465 6.27332C18.7744 6.14465 18.8389 5.97919 18.8389 5.81372C18.8389 5.64825 18.7744 5.48279 18.6465 5.35413C18.3887 5.09674 17.9844 5.09674 17.7266 5.35413L16.5557 6.52521C15.4766 5.62646 14.1279 5.04071 12.6484 4.90729L12.6484 3.2511C12.6484 2.88708 12.3623 2.60107 11.999 2.60107C11.6348 2.60107 11.3486 2.88708 11.3486 3.2511ZM6.17871 12.0001C6.17871 8.78479 8.78516 6.17816 12 6.17816C15.2158 6.17816 17.8223 8.78479 17.8223 12.0001C17.8223 15.2155 15.2158 17.8221 12 17.8221C8.78516 17.8221 6.17871 15.2155 6.17871 12.0001ZM9.67578 8.12384C9.3125 8.12384 9.02637 8.40985 9.02637 8.77386L9.02637 15.2264C9.02637 15.5905 9.3125 15.8765 9.67578 15.8765C10.04 15.8765 10.3262 15.5905 10.3262 15.2264L10.3262 12.6501L13.6738 12.6501L13.6738 15.2264C13.6738 15.5905 13.96 15.8765 14.3242 15.8765C14.6875 15.8765 14.9736 15.5905 14.9736 15.2264L14.9736 12.0261L14.9736 8.77386C14.9736 8.40985 14.6875 8.12384 14.3242 8.12384C13.96 8.12384 13.6738 8.40985 13.6738 8.77386L13.6738 11.3502L10.3262 11.3502L10.3262 8.77386C10.3262 8.40985 10.04 8.12384 9.67578 8.12384Z"/></svg>

<svg xmlns="http://www.w3.org/2000/svg" fill="none" viewBox="0 0 24 24" focusable="false"><path fill="#74767B" fill-rule="evenodd" d="M11.34 3.25V4.9a7.14 7.14 0 0 0-3.9 1.62L6.27 5.35a.64.64 0 0 0-.92 0 .651.651 0 0 0 0 .92l1.17 1.17a7.14 7.14 0 0 0-1.62 3.91H3.25a.65.65 0 1 0 0 1.3H4.9a7.14 7.14 0 0 0 1.62 3.9l-1.17 1.17a.65.65 0 0 0 0 .92c.26.26.66.26.92 0l1.17-1.17a7.14 7.14 0 0 0 3.9 1.62v1.65c0 .37.29.65.65.65.37 0 .65-.28.65-.65v-1.65a7.14 7.14 0 0 0 3.91-1.62l1.17 1.17c.26.26.66.26.92 0a.651.651 0 0 0 0-.92l-1.17-1.17a7.14 7.14 0 0 0 1.62-3.9h1.65c.37 0 .65-.29.65-.65 0-.37-.28-.65-.65-.65h-1.65a7.14 7.14 0 0 0-1.62-3.91l1.17-1.17a.65.65 0 0 0 0-.92.64.64 0 0 0-.92 0l-1.17 1.17a7.14 7.14 0 0 0-3.91-1.62V3.25c0-.37-.28-.65-.65-.65-.36 0-.65.28-.65.65M6.17 12A5.83 5.83 0 0 1 12 6.17 5.826 5.826 0 1 1 6.17 12m3.5-3.88c-.36 0-.65.28-.65.65v6.45c0 .37.29.65.65.65.37 0 .65-.28.65-.65v-2.57h3.35v2.57c0 .37.29.65.65.65s.65-.28.65-.65V8.77c0-.37-.29-.65-.65-.65s-.65.28-.65.65v2.58h-3.35V8.77c0-.37-.28-.65-.65-.65"/></svg>
